resources/icons/16px/bring-forward.svg

<svg width="16" height="16" viewBox="0 0 16 16" fill="none" xmlns="http://www.w3.org/2000/svg">
<path d="M8.69706 0.29C8.51718 0.11 8.26733 0 7.9975 0C7.72767 0 7.46783 0.11 7.28794 0.29L4.28982 3.28C4.10993 3.47 4 3.72 4 3.99C4 4.54 4.44972 4.99 4.99938 4.99C5.2792 4.99 5.52904 4.88 5.70893 4.7L6.99813 3.41C6.99813 4.60666 7 5.80331 7 6.99997H1C0.447715 6.99997 0 7.44769 0 7.99997C0 8.55226 0.447715 8.99997 1 8.99997H7V11H1C0.447715 11 0 11.4477 0 12V14C0 14.5523 0.447715 15 1 15H15C15.5523 15 16 14.5523 16 14V12C16 11.4477 15.5523 11 15 11H9V8.99997H15C15.5523 8.99997 16 8.55226 16 7.99997C16 7.44769 15.5523 6.99997 15 6.99997H9L9 3.41419H8.99688V3.41L10.2861 4.7C10.466 4.88 10.7158 4.99 10.9856 4.99C11.5353 4.99 11.985 4.54 11.985 3.99C11.985 3.71 11.8751 3.46 11.6952 3.28L8.69706 0.29Z" fill="#5F6B7C"/>
</svg>

<svg xmlns="http://www.w3.org/2000/svg" viewBox="0 0 16 16">
  <path d="M8.697.29a1 1 0 0 0-.7-.29c-.27 0-.53.11-.71.29L4.29 3.28A1.003 1.003 0 0 0 5.71 4.7l1.288-1.29L7 7H1a1 1 0 0 0 0 2h6v2H1a1 1 0 0 0-1 1v2a1 1 0 0 0 1 1h14a1 1 0 0 0 1-1v-2a1 1 0 0 0-1-1H9V9h6a1 1 0 1 0 0-2H9V3.414h-.003V3.41l1.29 1.29c.179.18.429.29.699.29a1.003 1.003 0 0 0 .71-1.71z"/>
</svg>
